icon-svg/chicken.svg

<svg xmlns="http://www.w3.org/2000/svg" fill="#44739e" viewBox="0 0 24 24"><path d="M19.886 7.426c.057-.011.126-.018.179-.026a.4.4 0 0 1 .2.049.061.061 0 0 0 .089-.067c-.02-.063-.049-.138-.065-.19a.144.144 0 0 0-.1-.093.106.106 0 0 1-.081-.126.266.266 0 0 1 .049-.108.762.762 0 0 0 .142-.64.51.51 0 0 0-.2-.261.077.077 0 0 1-.02-.115.233.233 0 0 0 .044-.13.91.91 0 0 0-.06-.294.49.49 0 0 1 0-.168c.016-.078-.086-.126-.086-.126s.077-.082 0-.246-.6-.215-.6-.215.077-.335-.345-.5c-.341-.13-.613.4-.706.617a.124.124 0 0 1-.142.067.08.08 0 0 1-.053-.13l.28-.3a.112.112 0 0 0-.041-.179l-.032-.015.016-.007a.236.236 0 0 0 .146-.3v-.001a.237.237 0 0 0-.142-.145l-.058-.023a.273.273 0 0 1-.138-.126l-.044-.089a.282.282 0 0 0-.268-.145 1.46 1.46 0 0 0-.894.412c-.511.469-.869 2.523-.93 2.928a.25.25 0 0 1-.06.127c-.053.063-.143.167-.268.305a3.734 3.734 0 0 1-1.708 1.027 17.7 17.7 0 0 1-2.3.126 6.69 6.69 0 0 1-2.347-.405c-.538-.314-.997-1.946-1.61-2.552a3.39 3.39 0 0 0-1.559-.811 1.1 1.1 0 0 0-.341-.015.076.076 0 0 1-.077-.112 1.04 1.04 0 0 0 .073-.138c.008-.048-.069-.167-.069-.167l-.138-.112-.057-.078-.155-.048-.028-.019a.072.072 0 0 0-.1.037l-.045.131s-.1-.2-.167-.168c-.109.056 0 .35 0 .35s-.2-.335-.312-.283c-.2.09.04.521.04.521s-.15-.264-.255-.223c-.053.018 0 .35 0 .35s-.109-.038-.15-.019.045.279.045.279H4.31a.082.082 0 0 0-.077.052l-.016.045-.073.059a.212.212 0 0 0-.073.2l.016.086-.021.089.009.1a1.8 1.8 0 0 0-.313.294.83.83 0 0 0-.118.457.415.415 0 0 1 .179-.119l.191-.1a.664.664 0 0 1 .381-.067.5.5 0 0 0 .065 0h.175a1.27 1.27 0 0 0-.1.361.574.574 0 0 0 .669.566.536.536 0 0 0 .39-.257A6.98 6.98 0 0 0 4.952 8.8a4.64 4.64 0 0 0 .921 3.318C7.035 13.6 8.781 13.971 9.2 14.272s.974.923 1.364 1.131c.345.186.845.729 1.393 1.15a3.7 3.7 0 0 0 .642.431 11.8 11.8 0 0 1-.662 2.065.278.278 0 0 1-.285.156 5.75 5.75 0 0 0-.836-.022 2.26 2.26 0 0 0-.54.167c-.041.015-.024.067.016.067.191 0 .483 0 .593.011 0 0 .219.067.223.067-.032 0-.3.008-.345.012a7.26 7.26 0 0 0-1.218.186.036.036 0 0 0 .008.07c.2.019.585.056.755.082.256.041.362.164.63.212a1.7 1.7 0 0 1-.309.164c-.13.03-.312.335-.422.536-.016.029.02.063.057.048.227-.119.731-.387.792-.409a5.56 5.56 0 0 1 1.27-.376c.029-.007.078-.019.159-.145.219.03.463.071.662.108a1.6 1.6 0 0 1-.309.163c-.13.03-.3.324-.418.529a.039.039 0 0 0 .057.048c.2-.115.572-.335.735-.42a6.96 6.96 0 0 1 1.319-.354c.033-.007.094-.026.2-.216a.29.29 0 0 1 .171-.137 1.77 1.77 0 0 1 .426-.108c.09.1.382.1.512.093h.085a.025.025 0 0 0 .02-.041l-.056-.059c0-.008-.143-.153-.248-.253a1.47 1.47 0 0 0-.646-.1c.094-.253.207-.577.333-1.012.118-.372.224-.748.309-1.075a2.083 2.083 0 0 0 1.027-1.112 2.957 2.957 0 0 0 1.218-2 8.47 8.47 0 0 0-.58-2.392 3.86 3.86 0 0 0 1.266-.4 2.678 2.678 0 0 0 .845-1.715 8.3 8.3 0 0 0 .049-1.034.218.218 0 0 1 .122-.175.7.7 0 0 0 .146-.085A2.7 2.7 0 0 1 20.243 8a.067.067 0 0 0 .053-.1.88.88 0 0 0-.207-.205l-.236-.156a.064.064 0 0 1 .033-.113M14.2 19.041c-.04.09-.2.09-.308.082a5.1 5.1 0 0 0-.861-.022 3.3 3.3 0 0 0-.333.048c.089-.245.585-1.856.682-2.221a4.54 4.54 0 0 0 .755-.457c.285-.264.309-.395.309-.395a1.39 1.39 0 0 0 .451.8 12.6 12.6 0 0 1-.695 2.165"/></svg>

<?xml version="1.0" encoding="UTF-8"?>
<svg width="24px" fill="#44739e" height="24px" viewBox="0 0 24 24" version="1.1" xmlns="http://www.w3.org/2000/svg" xmlns:xlink="http://www.w3.org/1999/xlink">
            <path d="M 19.886,7.426 C 19.943,7.415 20.012,7.408 20.065,7.4 a 0.4,0.4 0 0 1 0.2,0.049 0.061,0.061 0 0 0 0.089,-0.067 C 20.334,7.319 20.305,7.244 20.289,7.192 a 0.144,0.144 0 0 0 -0.1,-0.093 v 0 A 0.106,0.106 0 0 1 20.108,6.973 v 0 a 0.266,0.266 0 0 1 0.049,-0.108 0.762,0.762 0 0 0 0.142,-0.64 0.511,0.511 0 0 0 -0.2,-0.261 0.077,0.077 0 0 1 -0.02,-0.115 0.233,0.233 0 0 0 0.044,-0.13 0.91,0.91 0 0 0 -0.06,-0.294 0.489,0.489 0 0 1 0,-0.168 c 0.016,-0.078 -0.086,-0.126 -0.086,-0.126 0,0 0.077,-0.082 0,-0.246 -0.077,-0.164 -0.6,-0.215 -0.6,-0.215 0,0 0.077,-0.335 -0.345,-0.5 -0.341,-0.13 -0.613,0.4 -0.706,0.617 a 0.124,0.124 0 0 1 -0.142,0.067 v 0 a 0.08,0.08 0 0 1 -0.053,-0.13 l 0.28,-0.3 A 0.112,0.112 0 0 0 18.37,4.245 L 18.338,4.23 18.354,4.223 A 0.236,0.236 0 0 0 18.5,3.923 V 3.922 A 0.237,0.237 0 0 0 18.358,3.777 L 18.3,3.754 A 0.273,0.273 0 0 1 18.162,3.628 L 18.118,3.539 A 0.282,0.282 0 0 0 17.85,3.394 1.46,1.46 0 0 0 16.956,3.806 c -0.511,0.469 -0.869,2.523 -0.93,2.928 a 0.25,0.25 0 0 1 -0.06,0.127 C 15.913,6.924 15.823,7.028 15.698,7.166 A 3.734,3.734 0 0 1 13.99,8.193 17.71,17.71 0 0 1 11.69,8.319 6.685,6.685 0 0 1 9.343,7.914 C 8.805,7.6 8.346,5.968 7.733,5.362 A 3.388,3.388 0 0 0 6.174,4.551 1.1,1.1 0 0 0 5.833,4.536 0.076,0.076 0 0 1 5.756,4.424 1.039,1.039 0 0 0 5.829,4.286 C 5.837,4.238 5.76,4.119 5.76,4.119 L 5.622,4.007 5.565,3.929 5.41,3.881 5.382,3.862 a 0.072,0.072 0 0 0 -0.1,0.037 L 5.237,4.03 c 0,0 -0.1,-0.2 -0.167,-0.168 -0.109,0.056 0,0.35 0,0.35 0,0 -0.2,-0.335 -0.312,-0.283 -0.2,0.09 0.04,0.521 0.04,0.521 0,0 -0.15,-0.264 -0.255,-0.223 -0.053,0.018 0,0.35 0,0.35 0,0 -0.109,-0.038 -0.15,-0.019 -0.041,0.019 0.045,0.279 0.045,0.279 H 4.31 A 0.082,0.082 0 0 0 4.233,4.889 L 4.217,4.934 4.144,4.993 a 0.212,0.212 0 0 0 -0.073,0.2 l 0.016,0.086 -0.021,0.089 0.009,0.1 A 1.785,1.785 0 0 0 3.762,5.762 0.831,0.831 0 0 0 3.644,6.219 0.415,0.415 0 0 1 3.823,6.1 L 4.014,6 a 0.664,0.664 0 0 1 0.381,-0.067 0.479,0.479 0 0 0 0.065,0 H 4.635 A 1.275,1.275 0 0 0 4.535,6.294 0.574,0.574 0 0 0 5.204,6.86 0.536,0.536 0 0 0 5.594,6.603 6.978,6.978 0 0 0 4.952,8.8 4.639,4.639 0 0 0 5.873,12.118 c 1.162,1.482 2.908,1.853 3.327,2.154 0.419,0.301 0.974,0.923 1.364,1.131 0.345,0.186 0.845,0.729 1.393,1.15 a 3.7,3.7 0 0 0 0.642,0.431 11.784,11.784 0 0 1 -0.662,2.065 0.278,0.278 0 0 1 -0.285,0.156 5.751,5.751 0 0 0 -0.836,-0.022 2.259,2.259 0 0 0 -0.54,0.167 c -0.041,0.015 -0.024,0.067 0.016,0.067 0.191,0 0.483,0 0.593,0.011 0,0 0.219,0.067 0.223,0.067 -0.032,0 -0.3,0.008 -0.345,0.012 a 7.256,7.256 0 0 0 -1.218,0.186 0.036,0.036 0 0 0 0.008,0.07 c 0.2,0.019 0.585,0.056 0.755,0.082 0.256,0.041 0.362,0.164 0.63,0.212 a 1.689,1.689 0 0 1 -0.309,0.164 c -0.13,0.03 -0.312,0.335 -0.422,0.536 -0.016,0.029 0.02,0.063 0.057,0.048 0.227,-0.119 0.731,-0.387 0.792,-0.409 a 5.557,5.557 0 0 1 1.27,-0.376 c 0.029,-0.007 0.078,-0.019 0.159,-0.145 0.219,0.03 0.463,0.071 0.662,0.108 a 1.6,1.6 0 0 1 -0.309,0.163 c -0.13,0.03 -0.3,0.324 -0.418,0.529 a 0.039,0.039 0 0 0 0.057,0.048 c 0.2,-0.115 0.572,-0.335 0.735,-0.42 a 6.957,6.957 0 0 1 1.319,-0.354 c 0.033,-0.007 0.094,-0.026 0.2,-0.216 a 0.291,0.291 0 0 1 0.171,-0.137 1.772,1.772 0 0 1 0.426,-0.108 c 0.09,0.1 0.382,0.1 0.512,0.093 h 0.085 a 0.025,0.025 0 0 0 0.02,-0.041 l -0.056,-0.059 c 0,-0.008 -0.143,-0.153 -0.248,-0.253 a 1.471,1.471 0 0 0 -0.646,-0.1 c 0.094,-0.253 0.207,-0.577 0.333,-1.012 0.118,-0.372 0.224,-0.748 0.309,-1.075 a 2.083,2.083 0 0 0 1.027,-1.112 v 0 a 2.957,2.957 0 0 0 1.218,-2 8.472,8.472 0 0 0 -0.58,-2.392 3.86,3.86 0 0 0 1.266,-0.4 A 2.678,2.678 0 0 0 19.413,9.422 8.267,8.267 0 0 0 19.462,8.388 0.218,0.218 0 0 1 19.584,8.213 0.7,0.7 0 0 0 19.73,8.128 2.716,2.716 0 0 1 20.243,8 0.067,0.067 0 0 0 20.296,7.9 0.876,0.876 0 0 0 20.089,7.695 L 19.853,7.539 A 0.064,0.064 0 0 1 19.886,7.426 Z M 14.2,19.041 c -0.04,0.09 -0.2,0.09 -0.308,0.082 a 5.074,5.074 0 0 0 -0.861,-0.022 3.3,3.3 0 0 0 -0.333,0.048 c 0.089,-0.245 0.585,-1.856 0.682,-2.221 a 4.536,4.536 0 0 0 0.755,-0.457 c 0.285,-0.264 0.309,-0.395 0.309,-0.395 a 1.391,1.391 0 0 0 0.451,0.8 12.607,12.607 0 0 1 -0.695,2.165 z"/>

</svg>
